X: 124
T: Stone's Rag
B: canberra pickers and fiddlers
B: old time tunes update
B: tunes
M:C|
L:1/8
Q: 1/4=100
K:C
V:1 
|:"C"cdeg- gage|agec- cdc2|"F"FGAc- cdcA|"(D)"dcAc- cdcA|
"G"BdBG- G2A^A|BdBG- G4|1g2g^f afg2|"C"e4- eged:||2g2 fg ec d2|"C"c4- c2g^g||
|:"A"agea- ag e2|agea- ag e2|"D"dcAd- dc A2|dcAd- dcAc|
"G"BdBG- G2A^A|BdBG- GABd|1g2g^f afg2|"C"e4- e2g^g:||2g2 fg ec d2|"C"c4- z4|]
% abcbook-tune_id 67a7d9ec2a628f89857bd0c9
% abcbook-tune_composer_id 
% abcbook-link-0 https://www.youtube.com/watch?v=o9v1PoKsiPU
% abcbook-link-title-0 Stone&#39;s Rag - Fiddle Tune
% abcbook-boost 0
% abcbook-difficulty 0
% abcbook-tags old time tunes
% abcbook-tablature 
% abcbook-transpose 
% abcbook-tuning GDAE
% abcbook-lastupdated 1739239814548
% abcbook-src-url 
% abcbook-soundfonts 
% abcbook-repeats 1
%%scale 0.8
%%newpage

